X:92
T:Captain Fife
R:Strathspey
B:The Athole Collection
M:C
L:1/8
K:F
F2 F>A c>dc>A|B>GA>F G>FD>G|F>CD>B, A,>B,C>B|A>F cB/A/ G2F2:|
c<f f2 d<fc<f|A>cf>a g<d d2|c<f f2 d>fB>d|c>F cB/A/ G2F2|c<f f2 d>fc>f|
A>cf>a g>d d2|C>FA,>F C>F f>d|c>F cB/A/ G2F2||

